src/asset/image/periode.svg

<svg width="22" height="22" viewBox="0 0 22 22" fill="none" xmlns="http://www.w3.org/2000/svg">
<path fill-rule="evenodd" clip-rule="evenodd" d="M21.5417 1.83333H18.3333V0.458333C18.3333 0.205333 18.128 0 17.875 0H15.125C14.872 0 14.6667 0.205333 14.6667 0.458333V1.83333H7.33333V0.458333C7.33333 0.205333 7.128 0 6.875 0H4.125C3.872 0 3.66667 0.205333 3.66667 0.458333V1.83333H0.458333C0.205333 1.83333 0 2.03867 0 2.29167V21.5417C0 21.7947 0.205333 22 0.458333 22H21.5417C21.7947 22 22 21.7947 22 21.5417V2.29167C22 2.03867 21.7947 1.83333 21.5417 1.83333ZM15.5833 0.916667H17.4167V3.66667H15.5833V0.916667ZM6.41667 0.916667H4.58333V3.66667H6.41667V0.916667ZM3.66667 2.75V4.125C3.66667 4.378 3.872 4.58333 4.125 4.58333H6.875C7.128 4.58333 7.33333 4.378 7.33333 4.125V2.75H14.6667V4.125C14.6667 4.378 14.872 4.58333 15.125 4.58333H17.875C18.128 4.58333 18.3333 4.378 18.3333 4.125V2.75H21.0833V6.41667H0.916667V2.75H3.66667ZM0.916667 7.33333V21.0833H21.0833V7.33333H0.916667Z" fill="#3E3832"/>
</svg>

<svg width="22" height="22" viewBox="0 0 22 22" fill="none" xmlns="http://www.w3.org/2000/svg"><path fill-rule="evenodd" clip-rule="evenodd" d="M21.542 1.833h-3.209V.458A.458.458 0 0017.875 0h-2.75a.458.458 0 00-.458.458v1.375H7.333V.458A.458.458 0 006.875 0h-2.75a.458.458 0 00-.458.458v1.375H.458A.459.459 0 000 2.292v19.25c0 .253.205.458.458.458h21.084a.458.458 0 00.458-.458V2.292a.458.458 0 00-.458-.459zM15.583.917h1.834v2.75h-1.834V.917zm-9.166 0H4.583v2.75h1.834V.917zM3.667 2.75v1.375c0 .253.205.458.458.458h2.75a.458.458 0 00.458-.458V2.75h7.334v1.375c0 .253.205.458.458.458h2.75a.458.458 0 00.458-.458V2.75h2.75v3.667H.917V2.75h2.75zM.917 7.333v13.75h20.166V7.333H.917z" fill="#3E3832"/></svg>
